X: 19899
T: Jig For John
R: jig
M: 6/8
K: Dmajor
|:A2f cde|gec dfa|~g3 fed|cBA GFE|
FAd BGB|AB/c/e fdB|ABA cde|1 fec dcB:|2 fec dz2||
|:~B3 BgB|fBe Bdc|ABA fAg|age ~f3|
~B3 BgB|fBe Bdc|ABA cde|fac dz2:|

